client/public/img/game/shared/emotes/hack_=_ban.svg

<?xml version="1.0" encoding="UTF-8" standalone="no"?>
<!-- Created with Inkscape (http://www.inkscape.org/) -->

<svg
   width="84"
   height="84"
   viewBox="0 0 22.224999 22.225001"
   version="1.1"
   id="svg5"
   xmlns="http://www.w3.org/2000/svg"
   xmlns:svg="http://www.w3.org/2000/svg">
  <defs
     id="defs2" />
  <g
     id="layer1">
    <g
       aria-label="="
       id="text30766"
       style="font-size:14.3795px;line-height:1.25;font-family:'Russo One';-inkscape-font-specification:'Russo One';letter-spacing:0px;word-spacing:0px;fill:#ffffff;stroke:#000000;stroke-width:0.71898">
      <path
         d="M 8.1647024,10.008152 V 8.1388173 h 5.8955956 v 1.8693347 z m 0,3.019695 v -1.869335 h 5.8955956 v 1.869335 z"
         id="path836" />
    </g>
    <g
       aria-label="ban"
       id="text31518"
       style="font-size:12.313px;line-height:1.25;font-family:'Russo One';-inkscape-font-specification:'Russo One';letter-spacing:0px;word-spacing:0px;fill:#ffffff;stroke:#000000;stroke-width:0.615654">
      <path
         d="m 4.6789686,17.238233 q 0,-0.184695 -0.12313,-0.307825 -0.12313,-0.12313 -0.307825,-0.12313 h -0.307825 q -0.517146,0 -0.898849,0.04925 -0.36939,0.04925 -0.578711,0.07388 v 3.20138 h 1.72382 q 0.49252,0 0.49252,-0.49252 z m -2.21634,-1.84695 q 1.194361,-0.24626 2.09321,-0.24626 h 0.430955 q 0.837284,0 1.342117,0.504833 0.5048329,0.504833 0.5048329,1.342117 v 2.83199 q 0,0.923475 -0.5294589,1.452934 -0.517146,0.517146 -1.440621,0.517146 H 0.30785369 v -8.6191 H 2.4626286 Z"
         id="path839" />
      <path
         d="m 10.52763,20.193353 q 0.652589,0 1.47756,-0.24626 v -0.73878 h -1.785385 q -0.184695,0 -0.3078248,0.12313 -0.12313,0.12313 -0.12313,0.307825 v 0.12313 q 0,0.184695 0.12313,0.307825 0.1231298,0.12313 0.3078248,0.12313 z m -2.2779048,-4.80207 q 2.2532788,-0.24626 4.0632898,-0.24626 0.837284,0 1.342117,0.504833 0.504833,0.504833 0.504833,1.342117 v 4.80207 H 12.25145 l -0.12313,-0.61565 q -0.578711,0.381703 -1.194361,0.566398 -0.603337,0.172382 -1.0219788,0.172382 h -0.430955 q -0.837284,0 -1.342117,-0.504833 -0.504833,-0.504833 -0.504833,-1.342117 v -0.554085 q 0,-0.837284 0.504833,-1.342117 0.504833,-0.504833 1.342117,-0.504833 H 12.00519 v -0.49252 q 0,-0.184695 -0.12313,-0.307825 -0.12313,-0.12313 -0.307825,-0.12313 -0.800345,0 -1.7730718,0.07388 -0.960414,0.07388 -1.551438,0.110817 z"
         id="path841" />
      <path
         d="m 18.900461,16.930408 q -0.652589,0 -1.47756,0.24626 v 4.617375 h -2.154775 v -6.52589 h 1.908515 l 0.12313,0.61565 q 0.578711,-0.381703 1.182048,-0.554085 0.61565,-0.184695 1.034292,-0.184695 h 0.554085 q 0.837284,0 1.342117,0.504833 0.504833,0.504833 0.504833,1.342117 v 4.80207 h -2.154775 v -4.43268 q 0,-0.184695 -0.12313,-0.307825 -0.12313,-0.12313 -0.307825,-0.12313 z"
         id="path843" />
    </g>
    <path
       d="M 2.653625,1.700598 Q 3.4747613,1.5403499 4.09273,1.5403499 h 0.3809396 q 0.5756419,0 0.9227201,0.3285086 Q 5.743468,2.197367 5.743468,2.7422104 V 5.8670475 H 4.2620364 v -2.964589 q 0,-0.1201861 -0.084653,-0.2003101 Q 4.09273,2.6220243 3.9657502,2.6220243 H 3.6694638 q -0.3216823,0 -0.5925726,0.03205 -0.2624251,0.03205 -0.4232662,0.048075 V 5.8670475 H 1.1721934 V 0.25836551 H 2.653625 Z m 5.6294329,3.1248371 q 0.4486622,0 1.0158388,-0.160248 V 4.1844429 H 8.0714248 q -0.1269798,0 -0.2116331,0.080124 -0.084653,0.080125 -0.084653,0.2003102 v 0.080124 q 0,0.120186 0.084653,0.20031 0.084654,0.080124 0.2116331,0.080124 z M 6.7169731,1.700598 q 1.5491542,-0.1602481 2.7935567,-0.1602481 0.5756422,0 0.9227202,0.3285086 0.347079,0.3285085 0.347079,0.8733519 V 5.8670475 H 9.4682031 L 9.3835499,5.4664273 Q 8.9856798,5.7148119 8.5624136,5.8349978 8.1476127,5.9471715 7.8597917,5.9471715 H 7.5635054 q -0.575642,0 -0.9227202,-0.3285085 Q 6.2937069,5.2901545 6.2937069,4.7453111 V 4.384753 q 0,-0.5448435 0.3470783,-0.8733519 Q 6.9878634,3.1828925 7.5635054,3.1828925 H 9.2988967 V 2.8623964 q 0,-0.120186 -0.084654,-0.20031 -0.084654,-0.080125 -0.211633,-0.080125 -0.5502461,0 -1.2190066,0.048075 -0.6602952,0.048075 -1.0666308,0.072112 z m 8.8039299,4.0863254 q -1.583015,0.1602481 -2.793556,0.1602481 -0.575642,0 -0.92272,-0.3285085 Q 11.457548,5.2901545 11.457548,4.7453111 V 2.9024585 q 0,-0.6009303 0.355544,-0.9374512 Q 12.177101,1.620474 12.812,1.620474 h 2.708903 v 1.0816744 h -2.24331 q -0.338613,0 -0.338613,0.3204961 V 4.585063 q 0,0.1201861 0.08465,0.2003101 0.08466,0.080124 0.211634,0.080124 0.761878,0 2.285636,-0.1201861 z M 17.679554,4.1844429 V 5.8670475 H 16.198123 V 0.25836551 h 1.481431 V 3.1027685 H 18.35678 L 19.287966,1.620474 h 1.566085 l -1.269799,2.0431627 1.269799,2.2034108 H 19.287966 L 18.314454,4.1844429 Z"
       id="text1"
       style="font-size:8.23575px;font-family:'Russo One';-inkscape-font-specification:'Russo One';fill:#ffffff;stroke:#000000;stroke-width:0.516731;stroke-linecap:square;paint-order:fill markers stroke"
       aria-label="hack" />
  </g>
</svg>

<svg xmlns="http://www.w3.org/2000/svg" width="84" height="84" viewBox="0 0 22.225 22.225"><path d="M8.165 10.008v-1.87h5.895v1.87zm0 3.02v-1.87h5.895v1.87z" aria-label="=" style="font-size:14.3795px;line-height:1.25;font-family:&quot;Russo One&quot;;-inkscape-font-specification:&quot;Russo One&quot;;letter-spacing:0;word-spacing:0;fill:#fff;stroke:#000;stroke-width:.71898"/><g aria-label="ban" style="font-size:12.313px;line-height:1.25;font-family:&quot;Russo One&quot;;-inkscape-font-specification:&quot;Russo One&quot;;letter-spacing:0;word-spacing:0;fill:#fff;stroke:#000;stroke-width:.615654"><path d="M4.679 17.238q0-.184-.123-.308-.123-.123-.308-.123H3.94q-.517 0-.899.05-.37.049-.578.073v3.202h1.723q.493 0 .493-.493zm-2.216-1.847q1.194-.246 2.093-.246h.43q.838 0 1.343.505t.505 1.342v2.832q0 .923-.53 1.453-.517.517-1.44.517H.308v-8.62h2.155ZM10.528 20.193q.652 0 1.477-.246v-.739H10.22q-.185 0-.308.123-.123.124-.123.308v.123q0 .185.123.308t.308.123zM8.25 15.391q2.253-.246 4.063-.246.837 0 1.342.505t.505 1.342v4.802h-1.909l-.123-.616q-.578.382-1.194.567-.603.172-1.022.172h-.431q-.837 0-1.342-.505-.505-.504-.505-1.342v-.554q0-.837.505-1.342t1.342-.505h2.524v-.492q0-.185-.123-.308t-.308-.123q-.8 0-1.773.074-.96.073-1.551.11zM18.9 16.93q-.652 0-1.477.247v4.617h-2.155v-6.526h1.909l.123.616q.578-.382 1.182-.554.615-.185 1.034-.185h.554q.837 0 1.342.505t.505 1.342v4.802h-2.155v-4.433q0-.184-.123-.307-.123-.124-.308-.124z"/></g><path d="M2.654 1.7q.82-.16 1.439-.16h.38q.576 0 .923.329.347.328.347.873v3.125H4.262V2.902q0-.12-.085-.2-.084-.08-.211-.08h-.297q-.321 0-.592.032-.263.032-.423.048v3.165H1.172V.258h1.482Zm5.63 3.125q.448 0 1.015-.16v-.48H8.07q-.127 0-.211.08-.085.08-.085.2v.08q0 .12.085.2.084.08.211.08zM6.716 1.701q1.55-.16 2.794-.16.575 0 .922.328t.347.873v3.125H9.468l-.084-.4q-.398.248-.822.368-.414.112-.702.112h-.296q-.576 0-.923-.328-.347-.329-.347-.874v-.36q0-.545.347-.874t.923-.328h1.735v-.32q0-.12-.085-.2-.084-.081-.211-.081-.55 0-1.22.048-.66.048-1.066.072zm8.804 4.086q-1.583.16-2.794.16-.575 0-.922-.328-.347-.329-.347-.874V2.902q0-.6.355-.937.364-.345.999-.345h2.709v1.082h-2.243q-.339 0-.339.32v1.563q0 .12.085.2.084.08.211.08.762 0 2.286-.12zm2.159-1.603v1.683h-1.482V.258h1.482v2.845h.677l.931-1.483h1.566l-1.27 2.044 1.27 2.203h-1.566l-.974-1.683Z" aria-label="hack" style="font-size:8.23575px;font-family:&quot;Russo One&quot;;-inkscape-font-specification:&quot;Russo One&quot;;fill:#fff;stroke:#000;stroke-width:.516731;stroke-linecap:square;paint-order:fill markers stroke"/></svg>
